X:11
T:Gasp\'e Reel
M:4/4
R:reel
Q:1/2=120
L:1/4
K:D
A|"D"fe/2f/2 ed|"D"F/2A/2F/2A/2 BA|"G"gf/2g/2 fe|"G"B/2A/2B/2c/2 "A"BA|
"D"fe/2f/2 ed|"D"F/2A/2F/2A/2 BA|"G"gf/2g/2 fe|"A7"Bc "D"d::
A|"A7"efg>e|"D"fga2|"A"efge|"G"B/2A/2B/2c/2 "A"BA|
"A7"efg>e|"D"fga2|"G"b>a ge|"A7"Bc"D"d:|
